svg/fluentui-system-icons/ic_fluent_couch_48_regular.svg

<svg width="48" height="48" viewBox="0 0 48 48" fill="none" xmlns="http://www.w3.org/2000/svg">
<path d="M13.25 11C10.3505 11 8 13.3505 8 16.25V17.707C5.6915 18.36 4 20.4824 4 23V29.75C4 32.2187 5.70399 34.2895 8 34.8503V37.75C8 38.4404 8.55964 39 9.25 39C9.94036 39 10.5 38.4404 10.5 37.75V35H37.5V37.75C37.5 38.4404 38.0596 39 38.75 39C39.4404 39 40 38.4404 40 37.75V34.8503C42.296 34.2895 44 32.2187 44 29.75V23C44 20.4824 42.3085 18.36 40 17.707V16.25C40 13.3505 37.6495 11 34.75 11H13.25ZM37.5 17.5907C34.9399 18.0609 33 20.3039 33 23H15C15 20.3039 13.0601 18.0609 10.5 17.5907V16.25C10.5 14.7312 11.7312 13.5 13.25 13.5H34.75C36.2688 13.5 37.5 14.7312 37.5 16.25V17.5907ZM6.5 23C6.5 21.3431 7.84315 20 9.5 20C11.1569 20 12.5 21.3431 12.5 23V24.25C12.5 24.9404 13.0596 25.5 13.75 25.5H34.25C34.9404 25.5 35.5 24.9404 35.5 24.25V23C35.5 21.3431 36.8431 20 38.5 20C40.1569 20 41.5 21.3431 41.5 23V29.75C41.5 31.2688 40.2688 32.5 38.75 32.5H9.25C7.73122 32.5 6.5 31.2688 6.5 29.75V23Z" fill="#212121"/>
</svg>

<svg xmlns="http://www.w3.org/2000/svg" width="48" height="48"><path d="M13.25 11A5.25 5.25 0 0 0 8 16.25v1.457A5.502 5.502 0 0 0 4 23v6.75a5.252 5.252 0 0 0 4 5.1v2.9a1.25 1.25 0 1 0 2.5 0V35h27v2.75a1.25 1.25 0 1 0 2.5 0v-2.9a5.25 5.25 0 0 0 4-5.1V23a5.502 5.502 0 0 0-4-5.293V16.25c0-2.9-2.35-5.25-5.25-5.25h-21.5Zm24.25 6.59A5.502 5.502 0 0 0 33 23H15c0-2.696-1.94-4.94-4.5-5.41v-1.34a2.75 2.75 0 0 1 2.75-2.75h21.5a2.75 2.75 0 0 1 2.75 2.75v1.34ZM6.5 23a3 3 0 1 1 6 0v1.25c0 .69.56 1.25 1.25 1.25h20.5c.69 0 1.25-.56 1.25-1.25V23a3 3 0 1 1 6 0v6.75a2.75 2.75 0 0 1-2.75 2.75H9.25a2.75 2.75 0 0 1-2.75-2.75V23Z"/></svg>
